X:141
T:Ticonderoga THO4.141
M:2/4
L:1/16
Z:vmp. Peter Dunk 2010/11.from a transcription by Fynn Titford-Mock 2007
B:Thompson's Compleat Collection of 200 Favourite Country Dances Volume IV.
Q:1/4=90
K:F
c2(AB) c2(fe)|dBdg fedc|fgaf d2ga|bgaf fedc|d2AB c2fe|
dBdg fedc|fgaf dbag|fage f4::fagf gedc|gabg afcA|BdgB AcfA|
GABc BAGF|fagf gedc|gabg agfe|fac_e dbag|afge f4:|
